packages/icons/svgs/duotone/Source=refresh.svg

<svg width="24" height="24" viewBox="0 0 24 24" fill="none" xmlns="http://www.w3.org/2000/svg">
<g opacity="0.55">
<path fill-rule="evenodd" clip-rule="evenodd" d="M12 3C7.05228 3 3 7.05228 3 12C3 12.5523 2.55228 13 2 13C1.44772 13 1 12.5523 1 12C1 5.94772 5.94772 1 12 1C16.2826 1 20.0324 3.41846 21.7998 7.06373C22.0408 7.56068 21.8332 8.15887 21.3363 8.39981C20.8393 8.64076 20.2411 8.43323 20.0002 7.93627C18.5676 4.98154 15.5174 3 12 3Z" fill="black"/>
<path fill-rule="evenodd" clip-rule="evenodd" d="M22 11C22.5523 11 23 11.4477 23 12C23 18.0523 18.0523 23 12 23C7.71737 23 3.96759 20.5815 2.20019 16.9363C1.95924 16.4393 2.16677 15.8411 2.66373 15.6002C3.16068 15.3592 3.75887 15.5668 3.99981 16.0637C5.43241 19.0185 8.48263 21 12 21C16.9477 21 21 16.9477 21 12C21 11.4477 21.4477 11 22 11Z" fill="black"/>
</g>
<path fill-rule="evenodd" clip-rule="evenodd" d="M21.9344 0.709061C22.4816 0.783268 22.8651 1.28708 22.7909 1.83436L21.9909 7.73436C21.9168 8.28077 21.4144 8.6641 20.8678 8.59122L14.8678 7.79122C14.3204 7.71823 13.9358 7.21527 14.0088 6.66783C14.0818 6.12039 14.5847 5.73577 15.1322 5.80877L20.1431 6.47689L20.8091 1.56563C20.8833 1.01835 21.3871 0.634854 21.9344 0.709061Z" fill="black"/>
<path fill-rule="evenodd" clip-rule="evenodd" d="M2.00908 16.2656C2.08317 15.7192 2.58559 15.3359 3.13217 15.4088L9.13217 16.2088C9.67961 16.2818 10.0642 16.7847 9.99124 17.3322C9.91824 17.8796 9.41529 18.2642 8.86784 18.1912L3.85687 17.5231L3.19094 22.4344C3.11673 22.9816 2.61292 23.3651 2.06564 23.2909C1.51837 23.2167 1.13487 22.7129 1.20908 22.1656L2.00908 16.2656Z" fill="black"/>
</svg>

<svg xmlns="http://www.w3.org/2000/svg" width="24" height="24" viewBox="0 0 24 24"><path fill-rule="evenodd" d="M12 3c-4.948 0-9 4.052-9 9a1 1 0 1 1-2 0C1 5.948 5.948 1 12 1c4.283 0 8.032 2.418 9.8 6.064a1 1 0 1 1-1.8.872C18.568 4.982 15.517 3 12 3Zm10 8a1 1 0 0 1 1 1c0 6.052-4.948 11-11 11-4.283 0-8.032-2.419-9.8-6.064a1 1 0 1 1 1.8-.872C5.432 19.018 8.483 21 12 21c4.948 0 9-4.052 9-9a1 1 0 0 1 1-1Z" clip-rule="evenodd" opacity=".55"/><path fill-rule="evenodd" d="M21.934.71a1 1 0 0 1 .857 1.124l-.8 5.9a1 1 0 0 1-1.123.857l-6-.8a1 1 0 0 1 .264-1.982l5.011.668.666-4.911a1 1 0 0 1 1.125-.857ZM2.01 16.266a1 1 0 0 1 1.122-.857l6 .8a1 1 0 1 1-.264 1.982l-5.011-.668-.666 4.911a1 1 0 0 1-1.982-.268l.8-5.9Z" clip-rule="evenodd"/></svg>
